_inc/systems/logos/auto-reflection.svg

<?xml version="1.0" encoding="utf-8"?>
<svg version="1.1" id="Warstwa_1" x="0px" y="0px" viewBox="0 0 200 40" xmlns="http://www.w3.org/2000/svg">
  <path d="M 29.695 21.662 C 28.982 21.729 28.365 21.807 27.749 21.827 C 27.569 21.831 27.385 21.662 27.2 21.569 C 27.351 21.453 27.496 21.259 27.661 21.239 C 28.545 21.123 29.438 21.055 30.321 20.958 C 30.763 20.909 30.928 21.079 30.865 21.521 C 30.749 22.385 30.671 23.259 30.535 24.118 C 30.506 24.293 30.297 24.438 30.171 24.598 C 30.093 24.409 29.938 24.215 29.948 24.026 C 29.972 23.487 30.054 22.948 30.132 22.293 C 29.938 22.438 29.821 22.511 29.724 22.603 C 27.108 25.098 23.957 26.458 20.399 26.778 C 18.715 26.928 16.996 26.754 15.297 26.7 C 15.113 26.695 14.938 26.487 14.758 26.375 C 14.904 26.239 15.03 26.079 15.195 25.977 C 15.506 25.783 15.831 25.594 16.171 25.462 C 16.365 25.39 16.608 25.438 16.826 25.433 C 16.724 25.613 16.632 25.793 16.516 25.962 C 16.467 26.035 16.375 26.074 16.278 26.142 C 20.088 27.205 27.224 24.846 29.695 21.662 Z" style="fill: rgb(204, 204, 204);"/>
  <path d="M 23.613 13.817 C 23.02 14.302 22.54 14.72 22.03 15.089 C 21.885 15.196 21.642 15.162 21.443 15.191 C 21.511 15.001 21.52 14.744 21.652 14.628 C 22.317 14.04 23.02 13.492 23.7 12.919 C 24.025 12.642 24.229 12.7 24.414 13.074 C 24.817 13.89 25.249 14.691 25.637 15.511 C 25.705 15.652 25.598 15.87 25.574 16.055 C 25.414 15.963 25.186 15.909 25.098 15.768 C 24.802 15.278 24.559 14.754 24.239 14.128 C 24.166 14.419 24.156 14.608 24.069 14.759 C 24.006 14.87 23.851 14.933 23.739 15.016 C 23.652 14.885 23.496 14.764 23.487 14.628 C 23.477 14.409 23.554 14.181 23.613 13.817 Z" style="fill: rgb(204, 204, 204);"/>
  <path d="M 32.977 19.157 C 32.603 19.56 32.37 19.851 32.088 20.089 C 31.982 20.181 31.763 20.137 31.593 20.157 C 31.618 19.987 31.584 19.768 31.681 19.662 C 31.918 19.385 32.215 19.157 32.69 18.73 C 32.302 18.443 31.972 18.239 31.7 17.977 C 31.598 17.88 31.618 17.652 31.584 17.482 C 31.768 17.501 32.001 17.463 32.122 17.56 C 32.404 17.793 32.627 18.089 32.986 18.477 C 33.273 18.137 33.486 17.836 33.753 17.594 C 33.88 17.482 34.113 17.492 34.297 17.448 C 34.253 17.647 34.273 17.895 34.161 18.026 C 33.933 18.283 33.632 18.472 33.263 18.763 C 33.681 19.142 33.986 19.38 34.234 19.671 C 34.326 19.778 34.283 20.001 34.302 20.166 C 34.132 20.142 33.909 20.176 33.807 20.079 C 33.516 19.822 33.283 19.506 32.977 19.157 Z" style="fill: rgb(204, 204, 204);"/>
  <path d="M 15.758 21.064 C 15.399 21.463 15.156 21.768 14.87 22.026 C 14.778 22.108 14.574 22.06 14.419 22.069 C 14.423 21.914 14.37 21.7 14.453 21.608 C 14.72 21.307 15.04 21.055 15.433 20.7 C 15.079 20.399 14.783 20.2 14.564 19.933 C 14.453 19.797 14.472 19.55 14.433 19.351 C 14.618 19.395 14.846 19.385 14.972 19.492 C 15.234 19.715 15.438 20.001 15.768 20.38 C 16.093 20.011 16.326 19.705 16.613 19.453 C 16.724 19.356 16.943 19.38 17.113 19.346 C 17.088 19.53 17.122 19.763 17.025 19.885 C 16.788 20.162 16.487 20.38 16.05 20.768 C 16.404 21.035 16.7 21.2 16.919 21.438 C 17.055 21.589 17.19 21.948 17.118 22.035 C 16.841 22.365 16.652 22.016 16.477 21.846 C 16.244 21.632 16.05 21.39 15.758 21.064 Z" style="fill: rgb(204, 204, 204);"/>
  <path d="M 24.453 10.861 C 24.836 11.176 25.152 11.399 25.419 11.676 C 25.516 11.778 25.482 12.006 25.511 12.176 C 25.341 12.157 25.113 12.2 25.011 12.103 C 24.729 11.846 24.501 11.531 24.142 11.113 C 23.802 11.521 23.593 11.827 23.326 12.069 C 23.21 12.171 22.972 12.142 22.787 12.171 C 22.817 12.001 22.792 11.778 22.894 11.666 C 23.132 11.39 23.428 11.166 23.783 10.841 C 23.438 10.521 23.132 10.283 22.894 9.992 C 22.797 9.87 22.846 9.632 22.826 9.448 C 22.991 9.487 23.205 9.472 23.317 9.569 C 23.593 9.807 23.821 10.094 24.176 10.482 C 24.472 10.137 24.686 9.836 24.953 9.599 C 25.074 9.492 25.302 9.506 25.482 9.467 C 25.453 9.652 25.486 9.885 25.385 10.006 C 25.161 10.278 24.86 10.501 24.453 10.861 Z" style="fill: rgb(204, 204, 204);"/>
  <path d="M 10.695 28.026 C 11.059 28.322 11.356 28.516 11.579 28.773 C 11.695 28.904 11.676 29.157 11.72 29.351 C 11.521 29.297 11.283 29.293 11.137 29.176 C 10.889 28.967 10.7 28.691 10.389 28.327 C 10.059 28.695 9.831 29.006 9.545 29.249 C 9.428 29.351 9.19 29.307 9.006 29.327 C 9.04 29.157 9.021 28.938 9.123 28.827 C 9.365 28.555 9.661 28.336 10.016 28.026 C 9.661 27.691 9.365 27.448 9.118 27.157 C 9.021 27.04 9.04 26.827 9.006 26.657 C 9.19 26.681 9.428 26.642 9.55 26.739 C 9.831 26.967 10.055 27.268 10.419 27.666 C 10.72 27.307 10.943 26.992 11.22 26.729 C 11.322 26.632 11.55 26.662 11.72 26.637 C 11.7 26.807 11.739 27.026 11.647 27.137 C 11.419 27.414 11.122 27.637 10.695 28.026 Z" style="fill: rgb(204, 204, 204);"/>
  <path d="M 18.394 15.856 C 19.088 15.851 19.666 16.399 19.69 17.089 C 19.715 17.793 19.127 18.409 18.423 18.419 C 17.72 18.429 17.132 17.836 17.132 17.118 C 17.137 16.424 17.7 15.865 18.394 15.856 Z M 19.147 17.259 C 19.147 17.171 19.147 17.084 19.147 16.992 C 18.909 16.822 18.686 16.55 18.428 16.506 C 18.03 16.438 17.763 16.734 17.768 17.137 C 17.773 17.54 18.04 17.831 18.443 17.749 C 18.695 17.7 18.909 17.433 19.147 17.259 Z" style="fill: rgb(204, 204, 204);"/>
  <path d="M 10.249 23.293 C 10.239 22.598 10.783 22.021 11.477 21.996 C 12.19 21.972 12.797 22.54 12.817 23.249 C 12.831 23.943 12.224 24.55 11.521 24.545 C 10.822 24.54 10.258 23.987 10.249 23.293 Z M 11.555 24.186 C 11.841 23.768 12.113 23.54 12.147 23.278 C 12.2 22.89 11.919 22.618 11.501 22.632 C 11.089 22.652 10.817 22.929 10.899 23.322 C 10.957 23.579 11.244 23.788 11.555 24.186 Z" style="fill: rgb(204, 204, 204);"/>
  <path d="M 24.778 20.259 C 25.477 20.273 26.025 20.836 26.02 21.53 C 26.016 22.254 25.428 22.822 24.715 22.807 C 24.03 22.793 23.462 22.21 23.462 21.526 C 23.462 20.827 24.064 20.244 24.778 20.259 Z M 24.792 20.628 C 24.477 21.016 24.176 21.22 24.122 21.477 C 24.04 21.861 24.302 22.147 24.72 22.166 C 25.137 22.186 25.423 21.919 25.375 21.53 C 25.341 21.273 25.069 21.04 24.792 20.628 Z" style="fill: rgb(204, 204, 204);"/>
  <path d="M 27.54 28.166 C 27.545 28.88 26.962 29.458 26.239 29.448 C 25.554 29.438 24.982 28.856 24.982 28.176 C 24.982 27.482 25.54 26.914 26.229 26.899 C 26.962 26.88 27.535 27.438 27.54 28.166 Z M 27.02 28.268 C 27.016 28.176 27.016 28.089 27.011 27.996 C 26.744 27.836 26.491 27.579 26.215 27.545 C 25.841 27.501 25.618 27.812 25.632 28.186 C 25.647 28.603 25.928 28.865 26.317 28.783 C 26.574 28.734 26.787 28.448 27.02 28.268 Z" style="fill: rgb(204, 204, 204);"/>
  <path d="M 29.312 17.958 C 29.321 18.671 28.734 19.263 28.025 19.254 C 27.336 19.244 26.773 18.676 26.763 17.987 C 26.753 17.273 27.341 16.681 28.054 16.691 C 28.734 16.696 29.302 17.268 29.312 17.958 Z M 28.249 17.302 C 27.661 17.361 27.399 17.55 27.394 17.977 C 27.394 18.375 27.632 18.594 28.006 18.613 C 28.389 18.628 28.695 18.399 28.656 18.03 C 28.632 17.754 28.37 17.501 28.249 17.302 Z" style="fill: rgb(204, 204, 204);"/>
  <path d="M 21.132 21.632 C 21.054 21.768 21.006 21.904 20.919 21.996 C 20.093 22.87 19.273 23.749 18.423 24.594 C 18.307 24.71 18.03 24.676 17.831 24.71 C 17.894 24.521 17.899 24.278 18.025 24.147 C 18.812 23.293 19.618 22.453 20.433 21.623 C 20.55 21.501 20.739 21.429 20.904 21.385 C 20.953 21.375 21.045 21.535 21.132 21.632 Z" style="fill: rgb(204, 204, 204);"/>
  <path d="M 21.671 20.637 C 21.608 20.293 21.501 20.089 21.554 19.953 C 22.025 18.788 22.52 17.632 23.035 16.487 C 23.093 16.356 23.317 16.302 23.462 16.215 C 23.511 16.38 23.637 16.579 23.588 16.705 C 23.127 17.851 22.642 18.992 22.147 20.123 C 22.088 20.263 21.928 20.365 21.671 20.637 Z" style="fill: rgb(204, 204, 204);"/>
  <path d="M 52.851 30.101 L 46.581 30.101 L 45.201 24.521 L 43.971 24.521 L 43.011 30.101 L 37.311 30.101 L 40.611 11.351 L 49.611 11.351 C 53.031 11.351 54.741 12.881 54.741 15.941 C 54.741 17.201 54.551 18.401 54.171 19.541 C 53.471 21.701 52.371 23.141 50.871 23.861 Z M 45.441 16.151 L 44.781 19.901 L 46.101 19.901 C 46.781 19.901 47.296 19.826 47.646 19.676 C 47.996 19.526 48.236 19.096 48.366 18.386 C 48.496 17.676 48.561 17.241 48.561 17.081 C 48.561 16.681 48.406 16.426 48.096 16.316 C 47.786 16.206 47.281 16.151 46.581 16.151 Z M 67.91 23.021 L 62.21 23.021 L 61.82 25.301 L 68.81 25.301 L 67.97 30.101 L 55.28 30.101 L 58.58 11.351 L 71.12 11.351 L 69.56 16.151 L 63.41 16.151 L 62.99 18.671 L 68.69 18.671 Z M 82.939 23.141 L 78.079 23.141 L 76.879 30.101 L 71.179 30.101 L 74.479 11.351 L 86.179 11.351 L 84.589 16.151 L 79.309 16.151 L 78.889 18.671 L 83.749 18.671 Z M 96.678 30.101 L 85.278 30.101 L 88.578 11.351 L 94.278 11.351 L 91.818 25.301 L 97.518 25.301 Z M 110.688 23.021 L 104.988 23.021 L 104.598 25.301 L 111.588 25.301 L 110.748 30.101 L 98.058 30.101 L 101.358 11.351 L 113.898 11.351 L 112.338 16.151 L 106.188 16.151 L 105.768 18.671 L 111.468 18.671 Z M 126.857 24.731 L 126.377 29.771 C 125.097 30.291 123.477 30.551 121.517 30.551 C 118.997 30.551 117.192 30.061 116.102 29.081 C 115.012 28.101 114.467 26.591 114.467 24.551 C 114.467 23.691 114.607 22.421 114.887 20.741 C 115.487 17.301 116.522 14.801 117.992 13.241 C 119.462 11.681 121.787 10.901 124.967 10.901 C 125.707 10.901 126.552 10.976 127.502 11.126 C 128.452 11.276 129.147 11.461 129.587 11.681 L 127.907 16.271 C 126.727 15.991 125.622 15.851 124.592 15.851 C 123.562 15.851 122.827 15.951 122.387 16.151 C 121.947 16.351 121.677 16.751 121.577 17.351 L 120.197 25.211 C 120.917 25.371 121.657 25.451 122.417 25.451 C 124.037 25.451 125.517 25.211 126.857 24.731 Z M 143.986 16.151 L 139.846 16.151 L 137.416 30.101 L 131.716 30.101 L 134.146 16.151 L 130.036 16.151 L 130.906 11.351 L 144.856 11.351 Z M 143.715 30.101 L 147.015 11.351 L 152.715 11.351 L 149.415 30.101 Z M 160.424 17.621 L 159.044 25.421 L 161.414 25.421 C 162.194 25.421 162.774 25.326 163.154 25.136 C 163.534 24.946 163.784 24.511 163.904 23.831 L 165.284 16.031 L 162.884 16.031 C 162.124 16.031 161.554 16.126 161.174 16.316 C 160.794 16.506 160.544 16.941 160.424 17.621 Z M 163.874 10.901 C 166.414 10.901 168.224 11.396 169.304 12.386 C 170.384 13.376 170.924 14.901 170.924 16.961 C 170.924 19.021 170.599 21.176 169.949 23.426 C 169.299 25.676 168.269 27.426 166.859 28.676 C 165.449 29.926 163.389 30.551 160.679 30.551 C 157.969 30.551 156.074 30.056 154.994 29.066 C 153.914 28.076 153.374 26.551 153.374 24.491 C 153.374 23.511 153.514 22.216 153.794 20.606 C 154.074 18.996 154.444 17.606 154.904 16.436 C 155.364 15.266 155.984 14.251 156.764 13.391 C 158.264 11.731 160.634 10.901 163.874 10.901 Z M 182.323 30.101 L 179.263 23.441 C 179.183 23.301 179.143 23.106 179.143 22.856 C 179.143 22.606 179.163 22.321 179.203 22.001 L 178.963 22.001 L 177.553 30.101 L 171.853 30.101 L 175.153 11.351 L 180.523 11.351 L 183.583 18.011 C 183.643 18.151 183.673 18.346 183.673 18.596 C 183.673 18.846 183.653 19.131 183.613 19.451 L 183.853 19.451 L 185.293 11.351 L 190.993 11.351 L 187.693 30.101 Z" style="fill: rgb(255, 255, 255); white-space: pre;"/>
</svg>

<svg xmlns="http://www.w3.org/2000/svg" viewBox="0 0 200 40"><path d="M29.7 21.66c-.72.07-1.34.15-1.95.17-.18 0-.36-.17-.55-.26.15-.12.3-.31.46-.33.89-.12 1.78-.18 2.66-.28q.65-.09.54.56-.14 1.3-.32 2.6c-.03.17-.24.32-.37.48-.08-.2-.23-.39-.22-.57.02-.54.1-1.08.18-1.74l-.4.31a15 15 0 0 1-9.33 4.18c-1.68.15-3.4-.03-5.1-.08-.19 0-.36-.21-.54-.32q.2-.23.44-.4.46-.31.97-.52c.2-.07.44-.02.66-.03l-.31.53q-.08.09-.24.18c3.8 1.06 10.94-1.3 13.42-4.48m-6.09-7.84c-.59.48-1.07.9-1.58 1.27-.14.1-.39.07-.59.1.07-.19.08-.45.21-.56q1.02-.87 2.05-1.71.46-.41.71.15c.4.82.84 1.62 1.23 2.44.06.14-.04.36-.07.54-.16-.09-.38-.14-.47-.28-.3-.5-.54-1.02-.86-1.64-.07.29-.08.48-.17.63-.06.11-.22.17-.33.26-.09-.13-.24-.26-.25-.4-.01-.21.06-.44.12-.8m9.37 5.34c-.38.4-.61.7-.9.93-.1.1-.32.05-.49.07.03-.17 0-.4.1-.5.23-.27.53-.5 1-.93-.39-.29-.72-.5-.99-.75-.1-.1-.08-.33-.12-.5.19.02.42-.02.54.08.28.23.5.53.87.92.28-.34.5-.64.76-.89.13-.1.36-.1.55-.14-.05.2-.03.45-.14.58-.23.25-.53.44-.9.73.42.38.73.62.97.91.1.1.05.33.07.5-.17-.03-.4 0-.5-.1-.28-.25-.52-.56-.82-.91m-17.22 1.9c-.36.4-.6.7-.89.97-.1.08-.3.03-.45.04 0-.16-.05-.37.03-.46.27-.3.59-.55.98-.91-.35-.3-.65-.5-.87-.77-.1-.13-.09-.38-.13-.58.19.04.42.04.54.14.26.23.47.51.8.89.32-.37.56-.68.84-.93.11-.1.33-.07.5-.1-.02.18.01.41-.09.54-.23.27-.53.49-.97.88.35.27.65.43.87.67.13.15.27.5.2.6-.28.32-.47-.02-.64-.2-.24-.2-.43-.45-.72-.78m8.69-10.2c.39.32.7.54.97.82.1.1.06.33.1.5-.18-.02-.4.02-.5-.08-.3-.25-.52-.57-.88-.99-.34.41-.55.72-.81.96-.12.1-.36.07-.54.1.03-.17 0-.4.1-.5.24-.28.54-.5.9-.83-.35-.32-.66-.56-.9-.85-.1-.12-.04-.36-.06-.54.16.04.38.02.49.12.27.24.5.52.86.91.3-.34.5-.64.77-.88.12-.1.35-.1.53-.13-.03.18 0 .41-.1.54-.22.27-.52.5-.93.85M10.7 28.03c.36.3.66.49.88.74.12.13.1.39.14.58-.2-.05-.44-.06-.58-.17-.25-.21-.44-.49-.75-.85-.33.37-.56.68-.85.92-.11.1-.35.06-.53.08.03-.17.01-.4.11-.5.25-.27.54-.5.9-.8-.36-.34-.65-.58-.9-.87-.1-.12-.08-.33-.11-.5.18.02.42-.02.54.08.28.23.5.53.87.93.3-.36.52-.68.8-.94.1-.1.33-.07.5-.1-.02.18.02.4-.07.5-.23.28-.53.5-.95.9m7.7-12.17c.69 0 1.27.54 1.29 1.23a1.3 1.3 0 0 1-1.27 1.33 1.3 1.3 0 0 1-1.29-1.3c0-.7.57-1.26 1.26-1.26m.75 1.4v-.27c-.24-.17-.46-.44-.72-.48-.4-.07-.67.22-.66.63 0 .4.27.7.67.6.25-.04.47-.3.7-.48m-8.88 6.04c-.01-.7.53-1.28 1.23-1.3a1.3 1.3 0 0 1 1.34 1.25c.01.7-.6 1.3-1.3 1.3a1.3 1.3 0 0 1-1.27-1.26m1.3.89c.3-.42.56-.65.6-.91.05-.39-.23-.66-.65-.65-.41.02-.68.3-.6.7.06.25.34.46.65.86" style="fill:#ccc"/><path d="M24.78 20.26c.7.01 1.24.58 1.24 1.27a1.28 1.28 0 1 1-2.56 0c0-.7.6-1.29 1.32-1.27m.01.37c-.31.39-.61.59-.67.85-.08.38.18.67.6.69s.7-.25.66-.64c-.04-.26-.31-.49-.59-.9m2.75 7.54c0 .71-.58 1.29-1.3 1.28a1.3 1.3 0 0 1-1.26-1.27c0-.7.56-1.27 1.25-1.28.73-.02 1.3.54 1.31 1.27m-.52.1V28c-.28-.16-.53-.42-.8-.45-.38-.05-.6.26-.59.64.02.41.3.67.69.6.25-.06.47-.34.7-.52m2.29-10.31a1.3 1.3 0 0 1-1.28 1.3 1.28 1.28 0 0 1 .03-2.56c.67 0 1.24.57 1.25 1.26m-1.06-.66c-.59.06-.85.25-.86.68 0 .4.24.61.62.63s.68-.21.65-.58c-.03-.28-.29-.53-.41-.73m-7.12 4.33c-.08.14-.12.27-.21.37q-1.23 1.32-2.5 2.6c-.11.11-.39.08-.59.11.06-.19.07-.43.2-.56q1.18-1.29 2.4-2.53.2-.18.47-.23c.05-.02.15.14.23.24m.54-.99c-.06-.35-.17-.55-.12-.69q.71-1.74 1.48-3.46c.06-.13.29-.19.43-.27.05.16.18.36.13.48q-.7 1.73-1.44 3.42c-.06.14-.22.24-.48.52" style="fill:#ccc"/><path d="M52.85 30.1h-6.27l-1.38-5.58h-1.23l-.96 5.58h-5.7l3.3-18.75h9q5.13 0 5.13 4.6 0 1.88-.57 3.6-1.05 3.23-3.3 4.31Zm-7.4-13.95-.67 3.75h1.32q1.02 0 1.55-.22t.72-1.3q.2-1.05.2-1.3 0-.6-.47-.76a5 5 0 0 0-1.52-.17Zm22.46 6.87h-5.7l-.39 2.28h6.99l-.84 4.8H55.28l3.3-18.75h12.54l-1.56 4.8h-6.15l-.42 2.52h5.7Zm15.03.12h-4.86l-1.2 6.96h-5.7l3.3-18.75h11.7l-1.6 4.8h-5.27l-.42 2.52h4.86Zm13.74 6.96h-11.4l3.3-18.75h5.7L91.82 25.3h5.7Zm14-7.08h-5.7l-.38 2.28h6.99l-.84 4.8h-12.7l3.3-18.75h12.55l-1.56 4.8h-6.15l-.42 2.52h5.7Zm16.18 1.71-.48 5.04q-1.92.78-4.86.78-3.78 0-5.42-1.47-1.63-1.47-1.63-4.53 0-1.3.42-3.8.9-5.17 3.1-7.5 2.2-2.35 6.98-2.35 1.1 0 2.53.23 1.43.22 2.09.55l-1.68 4.6a14 14 0 0 0-3.32-.43q-1.54 0-2.2.3t-.81 1.2l-1.38 7.86q1.08.24 2.22.24 2.43 0 4.44-.72m17.13-8.58h-4.14l-2.43 13.95h-5.7l2.43-13.95h-4.11l.87-4.8h13.95Zm-.28 13.95 3.3-18.75h5.7l-3.3 18.75Zm16.71-12.48-1.38 7.8h2.37q1.17 0 1.74-.28.57-.3.75-1.3l1.38-7.8h-2.4q-1.14 0-1.7.28-.58.28-.76 1.3m3.45-6.72q3.81 0 5.43 1.49 1.62 1.48 1.62 4.57t-.97 6.47-3.1 5.25q-2.1 1.87-6.17 1.87-4.06 0-5.69-1.48-1.62-1.5-1.62-4.58 0-1.47.42-3.88t1.11-4.17a10 10 0 0 1 1.86-3.05q2.25-2.49 7.11-2.49m18.45 19.2-3.06-6.66a1 1 0 0 1-.12-.58q0-.38.06-.86h-.24l-1.4 8.1h-5.7l3.3-18.75h5.36l3.06 6.66q.1.21.1.59 0 .37-.07.85h.24l1.44-8.1h5.7l-3.3 18.75Z" style="fill:#fff;white-space:pre"/></svg>
